!!!OTL: 78. Hermann. / Weise. Unterm Klang der Kriegeshoerner.
!!!ODT: 1819 (Mel.)
!!!ARE: Europa, Mitteleuropa, Deutschland
!!!SCT: B0078
!!!TXL: @@DE
!!!YEM: Copyright 1995, estate of Helmut Schaffrath.
**kern	**text
*ICvox	*
*Ivox	*
*M4/4	*
*met(c)	*
*clefG2	*
*k[b-e-a-]	*
*E-:	*
=1	=1
!LO:TX:a:t=Feierlich.	!
{4e-	Preis
4f	dir,
4g	Hermann,
4g	.
=2	=2
8gL	Volks-
8a-J	.
8gL	-er-
8fJ	.
8fL	-ret-
8e-J	.
4e-}	-ter,
=3	=3
{4g	der
4a-	wie
4b-	Got-
4b-	-tes
=4	=4
8b-L	Don-
8ccJ	.
8b-L	-ner-
8a-J	.
8a-L	-wet-
8gJ	.
4g}	-ter
=5	=5
{4.b-/	in
8g	die
4f	Fein-
4f	-de
=6	=6
4f	Deutſchlands
8gL	.
8e-J	.
4d	ſchlug,
4r}	.
=7	=7
{4f	in
8gL	die
8a-J	.
4g	Fein-
8ee-L	-de
8ddJ	.
=8	=8
8ddL	Deutſchlands
8ccJ	.
8b-L	.
8anJ	.
4b-	ſchlug,
4r}	.
=9	=9
{4.b-/	der
8g	die
4a-	Knechtſchaft
4f	.
=10	=10
4g	und
8fL	die
8e-J	.
8e-L	Schan-
8dJ	.
4d}	-de
=11	=11
{4.b-/	ſammt
8g	der
4a-	Ʒwingherrn
4f	.
=12	=12
4g	fre-
8fL	-cher
8e-J	.
8e-L	Ban-
8dJ	.
4d}	-de
=13	=13
{4cc	aus
4cc	dem
8b-L	deut-
8ee-J	.
4g	-ſchen
=14	=14
8b-L	Lan-
8a-J	.
8gL	-de
8fJ	.
4e-	jug!
4r}	.
==	==
!!!AGN: Helden -, Ehren -, Gedaechtnis -, Kriegs - Lied
!!!GTL: Helden- und Ehrengedächtnißlieder
!!!ONB: ESAC (Essen Associative Code) Database: BOEHME
!!!AMT: simple quadruple
!!!AIN: vox
!!!EED: Helmut Schaffrath
!!!EEV: 1.0
!!@@COMMENT:"Gedichtet um 1825 von Karl Heinr. Hoffmann, Buchhändler und Schriftſteller in Stuttgart,
!!geb. den 2. Juni 1802 ʒu Bernburg, geſt. 29. Dec. 1883. Melodie in Fink's Hausſchatʒ."
!!@@END:
!!Text: Karl Heinr. Hoffmann
!!!URL-scan: https://archive.org/details/BoehmeVtLieder1895/page/n89/mode/2up
!!!ENC: Anna Maria Matuszewska
!!!EEV: 2024/14/06
*-	*-
